X:1
T:Came You Not From Newcastle?
B:Sabine Baring Gould, 1895, Old English Songs from English Minstrelsie, 1895
F: http://www.folkinfo.org/songs
M:4/4     %Meter
L:1/8     %
K:F
AA c2 F2 G2 |(F3G) F2 z2 |A A c2 F2 c2 |(d2f4)
w:Came you not from New-cas-*tle? Came ye not there a-way?_
(ed) |c2 A2 G2 F2 |D2 d4 c B |c2 A2 G3 F |F4 z2
w:O_ met you not my true love Rid-ing on a bon-ny bay?
f (de) | e (dc) f2 A2 |(G2f4) G2 |F2 F G A2 E2 |(D2 d4)
w:Why_should I not_ love my love?_ Why should not my love love me?_
e2 |fe (dB) f2 A2 |(G2A2B3) c |d2 A2 G3 F |F8 |]
w:Why should I not_ love my love?__ Be-cause my love loves me.
W:Came you not from Newcastle?
W:Came you not there away?
W:O met you not my true love
W:Riding on a bonny bay?
W:Why should I not love my love?
W:Why should not my love love me?
W:Why should I love not my love?
W:Because my love loves me.
W:
W:I have land at Newcastle
W:Will buy both hose and shoone;
W:And I have land at Durham
W:With housen in the toun.
W:Why should I not love my love?
W:Why should not my love love me?
W:Why should I love not my love?
W:Because my love loves me.
